src/posys-cursor-dnd-copy.svg

<?xml version="1.0" encoding="UTF-8" standalone="no"?>
<!-- Created with Inkscape (http://www.inkscape.org/) -->

<svg
   version="1.1"
   id="svg1"
   width="32"
   height="32"
   viewBox="0 0 32 32"
   sodipodi:docname="posys-cursor-dnd-copy.svg"
   inkscape:version="1.4 (e7c3feb100, 2024-10-09)"
   xmlns:inkscape="http://www.inkscape.org/namespaces/inkscape"
   xmlns:sodipodi="http://sodipodi.sourceforge.net/DTD/sodipodi-0.dtd"
   xmlns="http://www.w3.org/2000/svg"
   xmlns:svg="http://www.w3.org/2000/svg">
  <defs
     id="defs1">
    <clipPath
       clipPathUnits="userSpaceOnUse"
       id="clipPath71-1">
      <path
         d="M 0,324 H 524 V 0 H 0 Z"
         transform="translate(-133.8805,-114.0009)"
         id="path71-2" />
    </clipPath>
    <clipPath
       clipPathUnits="userSpaceOnUse"
       id="clipPath67-7-6">
      <path
         d="M 0,324 H 524 V 0 H 0 Z"
         transform="translate(-314.67091,-101.7031)"
         id="path67-5-2" />
    </clipPath>
  </defs>
  <sodipodi:namedview
     id="namedview1"
     pagecolor="#646464"
     bordercolor="#000000"
     borderopacity="0.25"
     inkscape:showpageshadow="2"
     inkscape:pageopacity="0.0"
     inkscape:pagecheckerboard="0"
     inkscape:deskcolor="#d1d1d1"
     inkscape:zoom="5.6568543"
     inkscape:cx="-8.2201163"
     inkscape:cy="14.584077"
     inkscape:window-width="1536"
     inkscape:window-height="792"
     inkscape:window-x="0"
     inkscape:window-y="0"
     inkscape:window-maximized="1"
     inkscape:current-layer="svg1"
     showguides="true">
    <inkscape:page
       x="0"
       y="0"
       inkscape:label="1"
       id="page1"
       width="32"
       height="32"
       margin="112.708 146.66667 44.262665 157.33333"
       bleed="0"
       inkscape:export-filename="../hyprcursor_themes/mono/hyprcursors/help/help.svg"
       inkscape:export-xdpi="96"
       inkscape:export-ydpi="96" />
    <sodipodi:guide
       position="8.0664063,5.6289062"
       orientation="1,0"
       id="guide1"
       inkscape:locked="false" />
    <sodipodi:guide
       position="13.921165,10.626593"
       orientation="0,-1"
       id="guide2"
       inkscape:locked="false" />
    <sodipodi:guide
       position="18.011719,5.5703125"
       orientation="1,0"
       id="guide3"
       inkscape:locked="false" />
  </sodipodi:namedview>
  <g
     inkscape:groupmode="layer"
     id="layer1"
     inkscape:label="no-tail"
     transform="matrix(0.9716294,0,0,0.9716294,-34.007031,-0.97162791)">
    <path
       id="path70"
       d="m 0,0 11.12,0.005 -26,26.003 0.002,-36.778 7.866,7.865 C -4.931,-1.054 -2.616,-0.009 0,0"
       style="display:inline;fill:#ffffff;fill-opacity:1;fill-rule:evenodd;stroke:#000000;stroke-width:2;stroke-linecap:butt;stroke-linejoin:miter;stroke-miterlimit:10;stroke-dasharray:none;stroke-opacity:1"
       transform="matrix(0.63022761,0,0,-0.63022761,45.008099,18.912669)"
       clip-path="url(#clipPath71-1)" />
  </g>
  <path
     id="path66-1"
     clip-path="url(#clipPath67-7-6)"
     style="display:inline;fill:#02db00;fill-opacity:1;fill-rule:evenodd;stroke:#ffffff;stroke-width:2.4575;stroke-dasharray:none;stroke-opacity:1;paint-order:normal"
     sodipodi:type="inkscape:offset"
     inkscape:radius="1.0583748"
     inkscape:original="M -18.267578 0.14648438 C -18.706376 0.14626395 -19.147221 0.31323696 -19.482422 0.6484375 L -23.724609 4.8925781 C -24.399242 5.56738 -24.389812 6.6512038 -23.724609 7.3164062 C -21.678938 9.3620762 -15.542969 15.5 -15.542969 15.5 L -23.724609 23.681641 C -24.404798 24.361848 -24.384047 25.447819 -23.724609 26.107422 L -19.482422 30.351562 C -18.807362 31.026789 -17.722506 31.017428 -17.056641 30.351562 L -8.8730469 22.167969 L -0.69140625 30.351562 C -0.02857336 31.014395 1.0675254 31.018411 1.734375 30.351562 L 5.9765625 26.107422 C 6.6458943 25.43809 6.6434089 24.348522 5.9765625 23.681641 L -2.2050781 15.5 C -2.2050781 15.5 3.2493608 10.044483 5.9765625 7.3164062 C 6.6784974 6.6144713 6.6181765 5.5343526 5.9765625 4.8925781 L 1.734375 0.6484375 C 1.0435787 -0.04235893 -0.04284201 -0.00012674197 -0.69140625 0.6484375 L -8.8730469 8.8300781 L -17.056641 0.6484375 C -17.39096 0.31411868 -17.828781 0.1467048 -18.267578 0.14648438 z "
     d="m -18.267578,-0.91210938 c -0.707645,-3.5548e-4 -1.42387,0.27348037 -1.962891,0.81250001 l -4.242187,4.24414057 c -1.078738,1.0790084 -1.068118,2.8518052 0,3.9199219 1.858441,1.85844 6.491903,6.4935609 7.433594,7.4355469 l -7.433594,7.433594 c -1.086067,1.086095 -1.062251,2.859358 0,3.921875 l 4.242187,4.24414 c 1.079366,1.079633 2.853084,1.068793 3.921875,0 l 7.4355471,-7.435547 7.4335938,7.435547 c 1.07384504,1.073846 2.843484,1.07839 3.921875,0 l 4.2421875,-4.24414 c 1.0763421,-1.076343 1.0734826,-2.848337 0,-3.921875 L -0.70898437,15.5 C 0.13499564,14.655851 4.24667,10.543188 6.7246094,8.0644531 c 1.1072368,-1.1072368 1.0379596,-2.8817026 0,-3.9199219 L 2.4824219,-0.09960937 c -1.098377,-1.09837723 -2.87167802,-1.05019703 -3.921875,0 L -8.8730469,7.3339844 -16.308594,-0.09960937 c -0.53609,-0.53609042 -1.25134,-0.81214454 -1.958984,-0.81250001 z"
     transform="matrix(0.19720516,0.19720516,0.19720516,-0.19720516,11.73119,31.148124)"
     inkscape:label="plus" />
</svg>

<?xml version="1.0" encoding="UTF-8" standalone="no"?>
<!-- Created with Inkscape (http://www.inkscape.org/) -->

<svg
   version="1.1"
   id="svg1"
   width="32"
   height="32"
   viewBox="0 0 32 32"
   sodipodi:docname="posys-cursor-dnd-copy.svg"
   inkscape:version="1.4 (e7c3feb100, 2024-10-09)"
   xmlns:inkscape="http://www.inkscape.org/namespaces/inkscape"
   xmlns:sodipodi="http://sodipodi.sourceforge.net/DTD/sodipodi-0.dtd"
   xmlns="http://www.w3.org/2000/svg"
   xmlns:svg="http://www.w3.org/2000/svg">
  <defs
     id="defs1">
    <clipPath
       clipPathUnits="userSpaceOnUse"
       id="clipPath67-7-6">
      <path
         d="M 0,324 H 524 V 0 H 0 Z"
         transform="translate(-314.67091,-101.7031)"
         id="path67-5-2" />
    </clipPath>
    <clipPath
       clipPathUnits="userSpaceOnUse"
       id="clipPath71-1-7">
      <path
         d="M 0,324 H 524 V 0 H 0 Z"
         transform="translate(-133.8805,-114.0009)"
         id="path71-2-5" />
    </clipPath>
  </defs>
  <sodipodi:namedview
     id="namedview1"
     pagecolor="#646464"
     bordercolor="#000000"
     borderopacity="0.25"
     inkscape:showpageshadow="2"
     inkscape:pageopacity="0.0"
     inkscape:pagecheckerboard="0"
     inkscape:deskcolor="#d1d1d1"
     inkscape:zoom="22.530838"
     inkscape:cx="8.6769965"
     inkscape:cy="16.177827"
     inkscape:window-width="1536"
     inkscape:window-height="792"
     inkscape:window-x="0"
     inkscape:window-y="0"
     inkscape:window-maximized="1"
     inkscape:current-layer="layer1"
     showguides="true">
    <inkscape:page
       x="0"
       y="0"
       inkscape:label="1"
       id="page1"
       width="32"
       height="32"
       margin="112.708 146.66667 44.262665 157.33333"
       bleed="0"
       inkscape:export-filename="../hyprcursor_themes/mono/hyprcursors/help/help.svg"
       inkscape:export-xdpi="96"
       inkscape:export-ydpi="96" />
    <sodipodi:guide
       position="6.7265625,5.6679688"
       orientation="1,0"
       id="guide1"
       inkscape:locked="false" />
    <sodipodi:guide
       position="13.921165,10.626593"
       orientation="0,-1"
       id="guide2"
       inkscape:locked="false" />
    <sodipodi:guide
       position="16.679063,10.167646"
       orientation="1,0"
       id="guide3"
       inkscape:locked="false" />
  </sodipodi:namedview>
  <g
     inkscape:groupmode="layer"
     id="layer1"
     inkscape:label="no-tail"
     transform="matrix(0.9716294,0,0,0.9716294,-34.007031,-0.97162791)">
    <path
       id="path70-5"
       d="m 0,0 11.12,0.005 -26,26.003 0.002,-36.778 7.866,7.865 C -4.931,-1.054 -2.616,-0.009 0,0"
       style="display:inline;fill:#ffffff;fill-opacity:1;fill-rule:evenodd;stroke:#000000;stroke-width:2;stroke-linecap:butt;stroke-linejoin:miter;stroke-miterlimit:10;stroke-dasharray:none;stroke-opacity:1"
       transform="matrix(0.5819806,0,0,-0.5819806,44.24193,17.541366)"
       clip-path="url(#clipPath71-1-7)"
       inkscape:label="cursor" />
  </g>
  <path
     id="path66-1"
     clip-path="url(#clipPath67-7-6)"
     style="display:inline;fill:#02db00;fill-opacity:1;fill-rule:evenodd;stroke:#ffffff;stroke-width:3.71206;stroke-dasharray:none;stroke-opacity:1;paint-order:normal"
     inkscape:label="plus"
     sodipodi:type="inkscape:offset"
     inkscape:radius="0.67559844"
     inkscape:original="M -18.267578 -0.91210938 C -18.975223 -0.91246486 -19.691448 -0.63862901 -20.230469 -0.099609375 L -24.472656 4.1445312 C -25.551394 5.2235396 -25.540774 6.9963364 -24.472656 8.0644531 C -22.614215 9.9228931 -17.980753 14.558014 -17.039062 15.5 L -24.472656 22.933594 C -25.558723 24.019689 -25.534907 25.792952 -24.472656 26.855469 L -20.230469 31.099609 C -19.151103 32.179242 -17.377385 32.168402 -16.308594 31.099609 L -8.8730469 23.664062 L -1.4394531 31.099609 C -0.36560806 32.173455 1.4040309 32.177999 2.4824219 31.099609 L 6.7246094 26.855469 C 7.8009515 25.779126 7.798092 24.007132 6.7246094 22.933594 L -0.70898438 15.5 C 0.13499564 14.655851 4.24667 10.543188 6.7246094 8.0644531 C 7.8318462 6.9572163 7.762569 5.1827505 6.7246094 4.1445312 L 2.4824219 -0.099609375 C 1.3840449 -1.1979866 -0.38925612 -1.1498064 -1.4394531 -0.099609375 L -8.8730469 7.3339844 L -16.308594 -0.099609375 C -16.844684 -0.63569979 -17.559934 -0.91175391 -18.267578 -0.91210938 z "
     d="m -18.267578,-1.5878906 c -0.882164,-4.432e-4 -1.771693,0.3400537 -2.441406,1.0097656 l -4.242188,4.2441406 c -1.341902,1.3422385 -1.330832,3.5461226 0,4.8769532 1.738692,1.7386912 5.654388,5.6559122 6.955078,6.9570312 l -6.955078,6.955078 c -1.349546,1.349581 -1.324408,3.554167 0,4.878906 l 4.242188,4.244141 c 1.342611,1.342943 3.547462,1.331446 4.878906,0 l 6.9570311,-6.957031 6.9550782,6.957031 c 1.33559015,1.335591 3.5385312,1.340374 4.8789062,0 L 7.203125,27.333984 c 1.3389235,-1.338924 1.3358951,-3.542942 0,-4.878906 L 0.24804688,15.5 C 1.4122973,14.335497 4.8846548,10.862183 7.203125,8.5429688 c 1.3723994,-1.3723994 1.2994628,-3.5771653 0,-4.8769532 L 2.9609375,-0.578125 c -1.362451,-1.3624513 -3.56713132,-1.311775 -4.8789062,0 L -8.8730469,6.3789062 -15.830078,-0.578125 c -0.666549,-0.6665492 -1.554383,-1.009322 -2.4375,-1.0097656 z"
     transform="matrix(0.19048901,0.19048901,0.19048901,-0.19048901,10.592291,30.825847)" />
</svg>
